argon/scalable/mimetypes/text-x-generic.svg

<?xml version="1.0" encoding="UTF-8" standalone="no"?>
<svg
   width="256"
   height="256"
   id="svg11300"
   sodipodi:version="0.32"
   sodipodi:docname="text-x-generic.svg"
   version="1.0"
   style="display:inline;enable-background:new"
   inkscape:version="1.3 (0e150ed6c4, 2023-07-21)"
   xmlns:inkscape="http://www.inkscape.org/namespaces/inkscape"
   xmlns:sodipodi="http://sodipodi.sourceforge.net/DTD/sodipodi-0.dtd"
   xmlns="http://www.w3.org/2000/svg"
   xmlns:svg="http://www.w3.org/2000/svg">
  <sodipodi:namedview
     stroke="#ef2929"
     fill="#f57900"
     id="base"
     pagecolor="#cccccc"
     bordercolor="#666666"
     borderopacity="1"
     inkscape:pageopacity="0"
     inkscape:pageshadow="2"
     inkscape:zoom="2.2522223"
     inkscape:cx="140.08386"
     inkscape:cy="124.09965"
     inkscape:current-layer="layer3"
     showgrid="false"
     inkscape:grid-bbox="true"
     inkscape:document-units="px"
     inkscape:showpageshadow="true"
     inkscape:window-width="1230"
     inkscape:window-height="1043"
     inkscape:window-x="0"
     inkscape:window-y="0"
     width="400px"
     height="300px"
     inkscape:snap-nodes="true"
     inkscape:snap-bbox="true"
     gridtolerance="10000"
     inkscape:object-nodes="true"
     inkscape:snap-grids="true"
     showguides="false"
     inkscape:guide-bbox="true"
     inkscape:window-maximized="0"
     inkscape:bbox-paths="true"
     inkscape:snap-bbox-midpoints="true"
     inkscape:snap-global="false"
     inkscape:object-paths="true"
     inkscape:snap-intersection-paths="true"
     inkscape:snap-smooth-nodes="true"
     inkscape:pagecheckerboard="false"
     showborder="true"
     inkscape:document-rotation="0"
     inkscape:deskcolor="#d1d1d1">
    <inkscape:grid
       spacingy="1"
       spacingx="1"
       id="grid5883"
       type="xygrid"
       enabled="true"
       visible="false"
       empspacing="4"
       snapvisiblegridlinesonly="true"
       originx="0"
       originy="0"
       units="px" />
    <inkscape:grid
       type="xygrid"
       id="grid11592"
       empspacing="2"
       visible="false"
       enabled="false"
       spacingx="0.5"
       spacingy="0.5"
       color="#ff0000"
       opacity="0.1254902"
       empcolor="#ff0000"
       empopacity="0.25098039"
       snapvisiblegridlinesonly="true"
       originx="0"
       originy="0"
       units="px" />
    <sodipodi:guide
       position="394.16276,545.36183"
       orientation="0,-1"
       id="guide864"
       inkscape:locked="false" />
  </sodipodi:namedview>
  <defs
     id="defs3" />
  <g
     style="display:inline"
     inkscape:groupmode="layer"
     inkscape:label="Icon"
     id="layer1">
    <g
       inkscape:groupmode="layer"
       id="layer4"
       inkscape:label="Shadow"
       style="display:inline;opacity:0.4">
      <path
         id="rect3"
         style="display:inline;opacity:0.4;fill:#000000;stroke-width:6.64319;stroke-linecap:round;stroke-linejoin:round;paint-order:stroke markers fill;enable-background:new"
         d="M 40 128 L 40 225.37109 C 40 235.69114 48.308858 244 58.628906 244 L 197.37109 244 C 207.69114 244 216 235.69114 216 225.37109 L 216 128 L 40 128 z " />
    </g>
    <g
       inkscape:groupmode="layer"
       id="layer2"
       inkscape:label="Background"
       style="display:inline">
      <path
         id="rect2"
         style="fill:#f9f9f9;stroke-width:6.64319;stroke-linecap:round;stroke-linejoin:round;paint-order:stroke markers fill"
         d="M 58.628906 16 C 48.308858 16 40 24.308858 40 34.628906 L 40 221.37109 C 40 231.69114 48.308858 240 58.628906 240 L 197.37109 240 C 207.69114 240 216 231.69114 216 221.37109 L 216 34.628906 C 216 34.589336 215.99438 34.55123 215.99414 34.511719 L 215.99414 80 L 151.99414 16 L 58.628906 16 z " />
    </g>
    <g
       inkscape:groupmode="layer"
       id="layer8"
       inkscape:label="Graphic"
       style="display:inline">
      <path
         id="rect1"
         style="display:inline;fill:#c6c6c6;fill-opacity:1;stroke-width:2.81803;stroke-linecap:round;stroke-linejoin:round;paint-order:stroke markers fill;enable-background:new"
         d="m 65,43 v 8 h 70 v -8 z m 0,18 v 8 h 70 v -8 z m 0,18 v 8 h 70 v -8 z m 0,18 v 8 h 126 v -8 z m 0,18 v 8 h 126 v -8 z m 0,18 v 8 h 126 v -8 z m 0,18 v 8 h 126 v -8 z m 0,18 v 8 h 126 v -8 z m 0,18 v 8 h 126 v -8 z m 0,18 v 8 h 126 v -8 z" />
    </g>
    <g
       inkscape:groupmode="layer"
       id="layer3"
       inkscape:label="Highlights"
       style="display:inline;enable-background:new">
      <path
         id="path2"
         style="display:inline;opacity:0.6;fill:#ffffff;stroke-width:6.64319;stroke-linecap:round;stroke-linejoin:round;paint-order:stroke markers fill;enable-background:new"
         d="M 58.628906,16 C 48.308869,16 40,24.308869 40,34.628906 v 2 C 40,26.308869 48.308869,18 58.628906,18 h 93.365234 l 64,64 v -2 l -64,-64 z M 215.99414,34.511719 v 2 c 0,0.03951 0.006,0.07762 0.006,0.117187 v -2 c 0,-0.03957 -0.006,-0.07768 -0.006,-0.117187 z" />
      <path
         id="path3"
         style="display:inline;opacity:0.2;fill:#ffffff;stroke-width:6.64319;stroke-linecap:round;stroke-linejoin:round;paint-order:stroke markers fill;enable-background:new"
         d="m 40,128 v 93.37109 C 40,231.69113 48.308869,240 58.628906,240 H 197.37109 C 207.69113,240 216,231.69113 216,221.37109 V 128 Z" />
      <path
         id="path4"
         style="display:inline;opacity:0.1;fill:#ffffff;stroke-width:6.64319;stroke-linecap:round;stroke-linejoin:round;paint-order:stroke markers fill;enable-background:new"
         d="m 128,16 v 224 h 69.37109 C 207.69113,240 216,231.69113 216,221.37109 V 34.628906 c 0,-0.03957 -0.006,-0.07768 -0.006,-0.117187 V 80 l -64,-64 z" />
    </g>
    <g
       inkscape:groupmode="layer"
       id="layer6"
       inkscape:label="Folded corner"
       style="display:inline">
      <path
         id="path6"
         style="opacity:0.4;fill:#000000;stroke-width:12.6323;stroke-linecap:round;stroke-linejoin:round;paint-order:stroke markers fill"
         inkscape:transform-center-y="-10.667154"
         d="M 152,20 V 65.371094 C 152,75.690974 160.30706,84 170.62695,84 H 216 v -4 h -3.99023 v 0.0098 C 192.0061,60.007887 172.00326,40.003255 152,20 Z"
         sodipodi:nodetypes="cssccccc" />
      <path
         id="path5"
         style="opacity:1;fill:#ececec;stroke-width:12.6323;stroke-linecap:round;stroke-linejoin:round;paint-order:stroke markers fill"
         inkscape:transform-center-y="-10.667154"
         d="M 152,16 V 61.371094 C 152,71.690985 160.30706,80 170.62696,80 H 216 C 194.66606,58.668561 173.33336,37.333354 152,16 Z"
         sodipodi:nodetypes="csscc" />
    </g>
  </g>
</svg>

<?xml version="1.0" encoding="UTF-8" standalone="no"?>
<svg
   width="256"
   height="256"
   id="svg11300"
   sodipodi:version="0.32"
   sodipodi:docname="text-x-generic.svg"
   version="1.0"
   style="display:inline;enable-background:new"
   inkscape:version="1.3 (0e150ed6c4, 2023-07-21)"
   xmlns:inkscape="http://www.inkscape.org/namespaces/inkscape"
   xmlns:sodipodi="http://sodipodi.sourceforge.net/DTD/sodipodi-0.dtd"
   xmlns:xlink="http://www.w3.org/1999/xlink"
   xmlns="http://www.w3.org/2000/svg"
   xmlns:svg="http://www.w3.org/2000/svg">
  <sodipodi:namedview
     stroke="#ef2929"
     fill="#f57900"
     id="base"
     pagecolor="#ffffff"
     bordercolor="#666666"
     borderopacity="1"
     inkscape:pageopacity="0"
     inkscape:pageshadow="2"
     inkscape:zoom="2.9044043"
     inkscape:cx="106.9066"
     inkscape:cy="115.85853"
     inkscape:current-layer="layer8"
     showgrid="false"
     inkscape:grid-bbox="true"
     inkscape:document-units="px"
     inkscape:showpageshadow="true"
     inkscape:window-width="1920"
     inkscape:window-height="1011"
     inkscape:window-x="1920"
     inkscape:window-y="32"
     width="400px"
     height="300px"
     inkscape:snap-nodes="true"
     inkscape:snap-bbox="true"
     gridtolerance="10000"
     inkscape:object-nodes="true"
     inkscape:snap-grids="true"
     showguides="false"
     inkscape:guide-bbox="true"
     inkscape:window-maximized="1"
     inkscape:bbox-paths="true"
     inkscape:snap-bbox-midpoints="true"
     inkscape:snap-global="false"
     inkscape:object-paths="true"
     inkscape:snap-intersection-paths="true"
     inkscape:snap-smooth-nodes="true"
     inkscape:pagecheckerboard="false"
     showborder="true"
     inkscape:document-rotation="0"
     inkscape:deskcolor="#d1d1d1">
    <inkscape:grid
       spacingy="1"
       spacingx="1"
       id="grid5883"
       type="xygrid"
       enabled="true"
       visible="false"
       empspacing="4"
       snapvisiblegridlinesonly="true"
       originx="0"
       originy="0"
       units="px" />
    <inkscape:grid
       type="xygrid"
       id="grid11592"
       empspacing="2"
       visible="false"
       enabled="false"
       spacingx="0.5"
       spacingy="0.5"
       color="#ff0000"
       opacity="0.1254902"
       empcolor="#ff0000"
       empopacity="0.25098039"
       snapvisiblegridlinesonly="true"
       originx="0"
       originy="0"
       units="px" />
    <sodipodi:guide
       position="394.16276,545.36183"
       orientation="0,-1"
       id="guide864"
       inkscape:locked="false" />
  </sodipodi:namedview>
  <defs
     id="defs3">
    <linearGradient
       gradientUnits="userSpaceOnUse"
       y2="401.58368"
       x2="-74.916695"
       y1="401.58368"
       x1="525.92114"
       id="linearGradient4226"
       xlink:href="#linearGradient4338"
       inkscape:collect="always"
       gradientTransform="matrix(0,-0.45312414,0.45309296,0,2.0445942,239.99957)" />
    <linearGradient
       inkscape:collect="always"
       id="linearGradient4338">
      <stop
         style="stop-color:#f2f2f2;stop-opacity:1"
         offset="0"
         id="stop4340" />
      <stop
         style="stop-color:#f9f9f9;stop-opacity:1"
         offset="1"
         id="stop4342" />
    </linearGradient>
  </defs>
  <g
     style="display:inline"
     inkscape:groupmode="layer"
     inkscape:label="Icon"
     id="layer1">
    <g
       inkscape:groupmode="layer"
       id="layer4"
       inkscape:label="Shadow"
       style="display:inline;opacity:0.4">
      <path
         id="path861"
         style="color:#000000;display:inline;overflow:visible;visibility:visible;fill:#000000;fill-opacity:1;fill-rule:nonzero;stroke:none;stroke-width:0.999985;marker:none;enable-background:accumulate"
         d="M 78.92654,20 C 43.630841,20 39.832874,23.626097 40.005859,58.994141 V 132 205.00586 C 39.832874,240.37391 43.630841,244 78.92654,244 h 98.15324 c 35.2957,0 38.92068,-3.62568 38.92068,-38.99414 V 132 58.994141 c 0,-0.265209 -0.005,-0.490304 -0.006,-0.751953 V 80 l -0.004,-0.0039 V 80 H 155.9923 V 20 Z" />
    </g>
    <g
       inkscape:groupmode="layer"
       id="layer2"
       inkscape:label="Background"
       style="display:inline">
      <path
         id="rect4158"
         style="color:#000000;display:inline;overflow:visible;visibility:visible;fill:url(#linearGradient4226);fill-opacity:1;fill-rule:nonzero;stroke:none;stroke-width:0.999978;marker:none;enable-background:accumulate"
         d="m 78.926029,16 c -35.295236,0 -39.093153,3.626097 -38.92017,38.994141 0,48.670569 0,97.341149 0,146.011719 C 39.832876,236.37391 43.630793,240 78.926029,240 h 98.151951 c 35.29524,0 38.92017,-3.62568 38.92017,-38.99414 0.007,-38.9552 -0.005,-86.92306 -0.006,-121.00586 L 151.99509,16.003906 C 126.16771,16.003152 90.553338,16 78.926029,16 Z"
         sodipodi:nodetypes="cccsscccc" />
    </g>
    <g
       inkscape:groupmode="layer"
       id="layer8"
       inkscape:label="Graphic"
       style="display:inline">
      <path
         id="rect1"
         style="display:inline;fill:#c6c6c6;fill-opacity:1;stroke-width:2.81803;stroke-linecap:round;stroke-linejoin:round;paint-order:stroke markers fill;enable-background:new"
         d="M 65 43 L 65 51 L 135 51 L 135 43 L 65 43 z M 65 61 L 65 69 L 135 69 L 135 61 L 65 61 z M 65 79 L 65 87 L 135 87 L 135 79 L 65 79 z M 65 97 L 65 105 L 191 105 L 191 97 L 65 97 z M 65 115 L 65 123 L 191 123 L 191 115 L 65 115 z M 65 133 L 65 141 L 191 141 L 191 133 L 65 133 z M 65 151 L 65 159 L 191 159 L 191 151 L 65 151 z M 65 169 L 65 177 L 191 177 L 191 169 L 65 169 z M 65 187 L 65 195 L 191 195 L 191 187 L 65 187 z M 65 205 L 65 213 L 191 213 L 191 205 L 65 205 z " />
    </g>
    <g
       inkscape:groupmode="layer"
       id="layer3"
       inkscape:label="Highlights"
       style="display:inline">
      <path
         id="path4231"
         style="color:#000000;display:inline;overflow:visible;visibility:visible;opacity:0.1;fill:#ffffff;fill-opacity:1;fill-rule:nonzero;stroke:none;stroke-width:0.999978;marker:none;enable-background:accumulate"
         d="M 128,16.001953 V 240 h 49.07812 c 35.29328,-1.4e-4 37.99976,-3.63828 38.91797,-38.99414 V 128 112 c -0.002,-11.18435 -0.004,-22.886369 -0.004,-32 L 151.99414,16.003906 c -8.48118,-2.47e-4 -14.59818,-0.0014 -23.99414,-0.002 z" />
      <path
         inkscape:connector-curvature="0"
         style="color:#000000;display:inline;overflow:visible;visibility:visible;opacity:0.2;fill:#ffffff;fill-opacity:1;fill-rule:nonzero;stroke:none;stroke-width:0.999978;marker:none;enable-background:accumulate"
         d="m 40.003546,127.99979 v 73.00669 c -0.172983,35.36805 3.625003,38.99309 38.920241,38.99309 h 98.152103 c 35.29524,0 38.00202,-3.63654 38.92025,-38.99309 v -73.00669 z"
         id="path4255"
         sodipodi:nodetypes="ccssscc" />
      <path
         style="color:#000000;display:inline;overflow:visible;visibility:visible;opacity:0.6;fill:#ffffff;fill-opacity:1;fill-rule:nonzero;stroke:none;stroke-width:0.999978;marker:none;enable-background:accumulate"
         d="m 78.924076,16 c -35.295241,0 -39.093153,3.626097 -38.92017,38.994141 v 2 C 39.830923,21.626096 43.628835,18 78.924076,18 H 153.9911 l -1.99601,-1.996094 h 25.00086 c 0.46362,-0.0023 0.86163,0.0065 1.3144,0.0059 C 177.88453,16.008609 177.51143,16 177.07603,16 Z"
         id="path931" />
    </g>
    <g
       inkscape:groupmode="layer"
       id="layer6"
       inkscape:label="Folded corner"
       style="display:inline">
      <path
         inkscape:connector-curvature="0"
         style="color:#000000;display:inline;overflow:visible;visibility:visible;opacity:0.4;fill:#000000;fill-opacity:1;fill-rule:nonzero;stroke:none;stroke-width:1.00004;marker:none;enable-background:accumulate"
         d="m 215.99229,80 -63.9972,-62 v 22.998427 1.000017 0.537119 c 0,35.294867 3.62622,39.632617 38.99602,39.459634 13.80488,0 25.00118,-0.271165 25.00118,-1.995197 z"
         id="path872"
         sodipodi:nodetypes="ccccscc" />
      <path
         inkscape:connector-curvature="0"
         style="color:#000000;display:inline;overflow:visible;visibility:visible;fill:#f9f9f9;fill-opacity:1;fill-rule:nonzero;stroke:none;stroke-width:1.00004;marker:none;enable-background:accumulate"
         d="M 215.99229,79.995197 151.99509,16 v 22.998427 1.000017 0.537119 c 0,35.294867 3.62622,39.632617 38.99602,39.459634 z"
         id="rect4158-0-3" />
    </g>
  </g>
</svg>
